Catalina-dark/actions/22/shape-choose.svg

<svg width="22" height="22" viewBox="5.182 5.182 11.64 11.64" xmlns="http://www.w3.org/2000/svg">
<defs>
<style id="current-color-scheme" type="text/css">.ColorScheme-Text {
        color:#f2f2f2
      }</style>
</defs>
<path class="ColorScheme-Text" d="m6.334 3a3.3333 3.3333 0 0 0-3.334 3.334 3.3333 3.3333 0 0 0 3.334 3.332 3.3333 3.3333 0 0 0 3.332-3.332 3.3333 3.3333 0 0 0-3.332-3.334zm6.666 0c-0.36933 0-0.66602 0.29668-0.66602 0.66602v5.334c0 0.36933 0.29669 0.66602 0.66602 0.66602h5.334c0.36934 0 0.66602-0.29669 0.66602-0.66602v-5.334c0-0.36934-0.29668-0.66602-0.66602-0.66602h-5.334zm-8 9.334c-0.36933 0-0.66602 0.29669-0.66602 0.66602v5.334c0 0.36934 0.29669 0.66602 0.66602 0.66602h2.666c0.36933 0 0.66796-0.29668 0.66796-0.66602v-5.334c0-0.36933-0.29863-0.66602-0.66796-0.66602h-2.666zm10.666 0-3.332 6.666h6.666l-3.334-6.666z" fill="currentColor"/>
</svg>

<svg xmlns="http://www.w3.org/2000/svg" viewBox="0 0 22 22">
  <defs id="defs3051">
    <style type="text/css" id="current-color-scheme">
      .ColorScheme-Text {
        color:#f2f2f2
      }
      </style>
  </defs>
 <path 
     style="fill:currentColor;fill-opacity:1;stroke:none"      
	 class="ColorScheme-Text"
        d="M 6.33398,3 A 3.3333287,3.3333287 0 0 0 3,6.33398 3.3333287,3.3333287 0 0 0 6.33398,9.66602 3.3333287,3.3333287 0 0 0 9.66602,6.33398 3.3333287,3.3333287 0 0 0 6.33398,3 Z M 13,3 c -0.36933,0 -0.66602,0.29668 -0.66602,0.66602 l 0,5.33398 c 0,0.36933 0.29669,0.66602 0.66602,0.66602 l 5.33398,0 C 18.70332,9.66602 19,9.36933 19,9 L 19,3.66602 C 19,3.29668 18.70332,3 18.33398,3 L 13,3 Z m -8,9.33398 c -0.36933,0 -0.66602,0.29669 -0.66602,0.66602 l 0,5.33398 C 4.33398,18.70332 4.63067,19 5,19 l 2.66602,0 c 0.36933,0 0.66796,-0.29668 0.66796,-0.66602 l 0,-5.33398 c 0,-0.36933 -0.29863,-0.66602 -0.66796,-0.66602 l -2.66602,0 z m 10.66602,0 L 12.33398,19 19,19 15.66602,12.33398 Z"
     />
</svg>
